X: 1
T: the Mooncoin Jig
P: piffero primo a0598
O: 100 enduring Irish session tunes (mod)
R: jig
F: http://ancients.sudburymuster.org/mus/ssp/pdf/robroymacF.pdf
Z: 2019 John Chambers <jc:trillian.mit.edu>
M: 6/8
L: 1/8
K: A
|:\
cBA AEA | AEA Bcd | cBA Aze | dB=G Bcd |\
cBA AEA | AEA Bcd | Ace =gze | dB=G Bcd :|
|:\
cde ef=g | faf =ged | cde ef=g | faA Bcd |\
cde ef=g | afd b=ge | afd =gze | dB=G Bcd :|
|:\
cBA Aaf | ecA Bcd | cBA =gze | dB=G Bcd |\
cBA Aaa | A=gg Aff | Aee ef=g | dB=G Bcd :|
